src/assets/duotone/Undo.svg

<svg width="24" height="24" viewBox="0 0 24 24"  xmlns="http://www.w3.org/2000/svg">
<path opacity="0.4" d="M7.81 2H16.18C19.83 2 22 4.17 22 7.81V16.18C22 19.82 19.83 21.99 16.19 21.99H7.81C4.17 22 2 19.83 2 16.19V7.81C2 4.17 4.17 2 7.81 2Z" />
<path d="M13.9199 8.98006H8.76994L9.09994 8.65006C9.38994 8.36006 9.38994 7.88006 9.09994 7.59006C8.80994 7.30006 8.32994 7.30006 8.03994 7.59006L6.46994 9.16006C6.17994 9.45006 6.17994 9.93006 6.46994 10.2201L8.03994 11.7901C8.18994 11.9401 8.37994 12.0101 8.56994 12.0101C8.75994 12.0101 8.94994 11.9401 9.09994 11.7901C9.38994 11.5001 9.38994 11.0201 9.09994 10.7301L8.83994 10.4701H13.9199C15.1999 10.4701 16.2499 11.5101 16.2499 12.8001C16.2499 14.0901 15.2099 15.1301 13.9199 15.1301H8.99994C8.58994 15.1301 8.24994 15.4701 8.24994 15.8801C8.24994 16.2901 8.58994 16.6301 8.99994 16.6301H13.9199C16.0299 16.6301 17.7499 14.9101 17.7499 12.8001C17.7499 10.6901 16.0299 8.98006 13.9199 8.98006Z" />
</svg>

<?xml version="1.0" encoding="UTF-8"?>
<svg width="24" height="24" viewBox="0 0 24 24" xmlns="http://www.w3.org/2000/svg">
 <path d="M7.81 2H16.18C19.83 2 22 4.17 22 7.81V16.18C22 19.82 19.83 21.99 16.19 21.99H7.81C4.17 22 2 19.83 2 16.19V7.81C2 4.17 4.17 2 7.81 2Z" opacity=".4"/>
 <path d="m13.92 8.9801h-5.15l0.33-0.33c0.29-0.29 0.29-0.77 0-1.06s-0.77-0.29-1.06 0l-1.57 1.57c-0.29 0.29-0.29 0.77 0 1.06l1.57 1.57c0.15 0.15 0.34 0.22 0.53 0.22s0.38-0.07 0.53-0.22c0.29-0.29 0.29-0.77 0-1.06l-0.26-0.26h5.08c1.28 0 2.33 1.04 2.33 2.33s-1.04 2.33-2.33 2.33h-4.92c-0.41 0-0.75 0.34-0.75 0.75s0.34 0.75 0.75 0.75h4.92c2.11 0 3.83-1.72 3.83-3.83s-1.72-3.82-3.83-3.82z"/>
</svg>
